flaticon/household/desk.svg

<svg xmlns="http://www.w3.org/2000/svg" width="32" height="32" viewBox="0 0 24 24">
    <path d="M 23.601562 10 L 23.601562 6.398438 L 20.398438 6.398438 L 20.398438 10 L 17.683594 10 L 17.566406 9.199219 L 19.601562 9.199219 L 19.601562 0 L 4.398438 0 L 4.398438 9.199219 L 6.371094 9.199219 L 6.25 10 L 0 10 L 0 14 L 0.398438 14 L 0.398438 24 L 2.398438 24 L 2.398438 15.601562 C 2.398438 14.71875 3.117188 14 4 14 L 5.644531 14 L 5.625 14.109375 C 5.539062 14.578125 5.664062 15.058594 5.96875 15.421875 C 6.273438 15.789062 6.722656 16 7.199219 16 L 10.800781 16 L 10.800781 17.199219 L 11.601562 17.199219 L 11.601562 18 L 10.800781 18 L 10.800781 18.480469 L 5.910156 19.609375 C 5.898438 19.613281 5.890625 19.621094 5.878906 19.625 C 5.851562 19.632812 5.828125 19.644531 5.804688 19.65625 C 5.78125 19.667969 5.761719 19.683594 5.742188 19.699219 C 5.722656 19.714844 5.707031 19.734375 5.691406 19.753906 C 5.675781 19.773438 5.660156 19.792969 5.648438 19.816406 C 5.636719 19.839844 5.628906 19.863281 5.621094 19.886719 C 5.613281 19.914062 5.609375 19.9375 5.605469 19.964844 C 5.605469 19.976562 5.601562 19.988281 5.601562 20 L 5.601562 20.421875 C 4.703125 20.519531 4 21.277344 4 22.199219 C 4 23.191406 4.808594 24 5.800781 24 C 6.792969 24 7.601562 23.191406 7.601562 22.199219 C 7.601562 21.417969 7.097656 20.757812 6.398438 20.511719 L 6.398438 20.316406 L 10.800781 19.304688 L 10.800781 19.433594 L 9.832031 20.402344 C 9.820312 20.402344 9.8125 20.398438 9.800781 20.398438 C 8.808594 20.398438 8 21.207031 8 22.199219 C 8 23.191406 8.808594 24 9.800781 24 C 10.792969 24 11.601562 23.191406 11.601562 22.199219 C 11.601562 21.539062 11.238281 20.96875 10.710938 20.65625 L 11.367188 20 L 12.632812 20 L 13.289062 20.65625 C 12.761719 20.96875 12.398438 21.539062 12.398438 22.199219 C 12.398438 23.191406 13.207031 24 14.199219 24 C 15.191406 24 16 23.191406 16 22.199219 C 16 21.207031 15.191406 20.398438 14.199219 20.398438 C 14.1875 20.398438 14.179688 20.402344 14.167969 20.402344 L 13.199219 19.433594 L 13.199219 19.304688 L 17.601562 20.316406 L 17.601562 20.511719 C 16.902344 20.757812 16.398438 21.417969 16.398438 22.199219 C 16.398438 23.191406 17.207031 24 18.199219 24 C 19.191406 24 20 23.191406 20 22.199219 C 20 21.277344 19.296875 20.519531 18.398438 20.421875 L 18.398438 20 C 18.398438 19.988281 18.394531 19.976562 18.394531 19.964844 C 18.390625 19.9375 18.386719 19.914062 18.378906 19.886719 C 18.371094 19.863281 18.363281 19.839844 18.351562 19.816406 C 18.339844 19.792969 18.324219 19.773438 18.308594 19.753906 C 18.292969 19.734375 18.277344 19.714844 18.257812 19.699219 C 18.238281 19.683594 18.21875 19.671875 18.195312 19.65625 C 18.171875 19.644531 18.148438 19.632812 18.121094 19.625 C 18.109375 19.621094 18.101562 19.613281 18.089844 19.609375 L 13.199219 18.480469 L 13.199219 18 L 12.398438 18 L 12.398438 17.199219 L 13.199219 17.199219 L 13.199219 16 L 16.71875 16 C 17.191406 16 17.640625 15.789062 17.945312 15.425781 C 18.25 15.058594 18.375 14.578125 18.292969 14.125 L 18.273438 14 L 20 14 C 20.882812 14 21.601562 14.71875 21.601562 15.601562 L 21.601562 24 L 23.601562 24 L 23.601562 14 L 24 14 L 24 10 Z M 6.800781 22.199219 C 6.800781 22.75 6.351562 23.199219 5.800781 23.199219 C 5.25 23.199219 4.800781 22.75 4.800781 22.199219 C 4.800781 21.648438 5.25 21.199219 5.800781 21.199219 C 6.351562 21.199219 6.800781 21.648438 6.800781 22.199219 Z M 9.800781 23.199219 C 9.25 23.199219 8.800781 22.75 8.800781 22.199219 C 8.800781 21.648438 9.25 21.199219 9.800781 21.199219 C 10.351562 21.199219 10.800781 21.648438 10.800781 22.199219 C 10.800781 22.75 10.351562 23.199219 9.800781 23.199219 Z M 15.199219 22.199219 C 15.199219 22.75 14.75 23.199219 14.199219 23.199219 C 13.648438 23.199219 13.199219 22.75 13.199219 22.199219 C 13.199219 21.648438 13.648438 21.199219 14.199219 21.199219 C 14.75 21.199219 15.199219 21.648438 15.199219 22.199219 Z M 19.199219 22.199219 C 19.199219 22.75 18.75 23.199219 18.199219 23.199219 C 17.648438 23.199219 17.199219 22.75 17.199219 22.199219 C 17.199219 21.648438 17.648438 21.199219 18.199219 21.199219 C 18.75 21.199219 19.199219 21.648438 19.199219 22.199219 Z M 11.601562 18.800781 L 12.398438 18.800781 L 12.398438 19.199219 L 11.601562 19.199219 Z M 22.398438 7.199219 L 22.800781 7.199219 L 22.800781 10 L 22.398438 10 Z M 21.199219 7.199219 L 21.601562 7.199219 L 21.601562 10 L 21.199219 10 Z M 18.800781 8.398438 L 17.449219 8.398438 L 17.273438 7.199219 L 18.800781 7.199219 Z M 5.199219 0.800781 L 18.800781 0.800781 L 18.800781 6.398438 L 17.152344 6.398438 L 16.757812 3.707031 C 16.742188 3.625 16.71875 3.542969 16.6875 3.464844 C 16.679688 3.4375 16.667969 3.414062 16.660156 3.390625 C 16.636719 3.335938 16.609375 3.28125 16.582031 3.226562 C 16.570312 3.207031 16.558594 3.183594 16.542969 3.164062 C 16.5 3.09375 16.453125 3.023438 16.398438 2.960938 C 16.398438 2.957031 16.394531 2.957031 16.394531 2.953125 C 16.328125 2.878906 16.25 2.808594 16.171875 2.746094 C 16.144531 2.726562 16.117188 2.707031 16.085938 2.6875 C 16.027344 2.648438 15.96875 2.609375 15.902344 2.578125 C 15.871094 2.558594 15.835938 2.542969 15.804688 2.53125 C 15.738281 2.503906 15.667969 2.480469 15.59375 2.460938 C 15.5625 2.453125 15.535156 2.441406 15.503906 2.433594 C 15.398438 2.414062 15.292969 2.398438 15.183594 2.398438 L 8.777344 2.398438 C 8.667969 2.398438 8.5625 2.414062 8.460938 2.433594 C 8.429688 2.441406 8.398438 2.453125 8.363281 2.460938 C 8.296875 2.480469 8.226562 2.5 8.160156 2.527344 C 8.125 2.542969 8.089844 2.5625 8.054688 2.578125 C 7.996094 2.609375 7.941406 2.644531 7.886719 2.679688 C 7.851562 2.703125 7.816406 2.726562 7.785156 2.75 C 7.726562 2.796875 7.671875 2.851562 7.621094 2.90625 C 7.601562 2.925781 7.578125 2.941406 7.5625 2.960938 C 7.503906 3.027344 7.457031 3.101562 7.410156 3.179688 C 7.402344 3.1875 7.398438 3.199219 7.394531 3.207031 C 7.355469 3.273438 7.324219 3.34375 7.296875 3.414062 C 7.289062 3.429688 7.28125 3.445312 7.277344 3.464844 C 7.246094 3.546875 7.222656 3.632812 7.203125 3.722656 L 6.796875 6.398438 L 5.199219 6.398438 Z M 5.199219 7.199219 L 6.675781 7.199219 L 6.492188 8.398438 L 5.199219 8.398438 Z M 4 13.199219 C 2.675781 13.199219 1.601562 14.277344 1.601562 15.601562 L 1.601562 23.199219 L 1.199219 23.199219 L 1.199219 13.199219 L 0.800781 13.199219 L 0.800781 10.800781 L 6.128906 10.800781 L 5.765625 13.199219 Z M 12.398438 16.398438 L 11.601562 16.398438 L 11.601562 16 L 12.398438 16 Z M 17.503906 14.257812 C 17.546875 14.488281 17.484375 14.730469 17.332031 14.914062 C 17.179688 15.09375 16.957031 15.199219 16.71875 15.199219 L 7.199219 15.199219 C 6.960938 15.199219 6.738281 15.09375 6.585938 14.914062 C 6.433594 14.730469 6.371094 14.488281 6.414062 14.242188 L 6.652344 12.679688 L 7.058594 10 L 7.179688 9.199219 L 7.183594 9.199219 L 7.566406 6.660156 L 7.992188 3.851562 C 8.003906 3.792969 8.027344 3.734375 8.050781 3.675781 C 8.058594 3.660156 8.0625 3.648438 8.070312 3.632812 C 8.097656 3.582031 8.128906 3.53125 8.167969 3.484375 C 8.171875 3.480469 8.175781 3.476562 8.175781 3.472656 C 8.210938 3.4375 8.246094 3.402344 8.285156 3.371094 C 8.296875 3.363281 8.3125 3.351562 8.328125 3.34375 C 8.359375 3.324219 8.386719 3.304688 8.417969 3.289062 C 8.433594 3.28125 8.453125 3.273438 8.46875 3.265625 C 8.503906 3.25 8.539062 3.238281 8.570312 3.230469 C 8.589844 3.226562 8.605469 3.222656 8.621094 3.21875 C 8.671875 3.207031 8.726562 3.199219 8.777344 3.199219 L 15.183594 3.199219 C 15.238281 3.199219 15.292969 3.207031 15.34375 3.21875 C 15.359375 3.21875 15.375 3.226562 15.390625 3.230469 C 15.425781 3.238281 15.460938 3.25 15.496094 3.265625 C 15.511719 3.273438 15.527344 3.277344 15.539062 3.285156 C 15.578125 3.304688 15.613281 3.324219 15.648438 3.351562 C 15.65625 3.355469 15.664062 3.359375 15.671875 3.367188 C 15.714844 3.402344 15.757812 3.4375 15.792969 3.480469 C 15.835938 3.53125 15.871094 3.585938 15.898438 3.644531 C 15.902344 3.648438 15.90625 3.65625 15.90625 3.660156 C 15.9375 3.71875 15.957031 3.78125 15.96875 3.839844 L 16.34375 6.398438 L 16.757812 9.199219 L 16.875 10 L 17.464844 14 Z M 23.199219 13.199219 L 22.800781 13.199219 L 22.800781 23.199219 L 22.398438 23.199219 L 22.398438 15.601562 C 22.398438 14.277344 21.324219 13.199219 20 13.199219 L 18.15625 13.199219 L 18.066406 12.601562 L 17.800781 10.800781 L 23.199219 10.800781 Z M 23.199219 13.199219"/>
    <path d="M4.800781 11.601562L2 11.601562C1.777344 11.601562 1.601562 11.777344 1.601562 12 1.601562 12.222656 1.777344 12.398438 2 12.398438L4.800781 12.398438C5.019531 12.398438 5.199219 12.222656 5.199219 12 5.199219 11.777344 5.019531 11.601562 4.800781 11.601562zM22 11.601562L19.199219 11.601562C18.980469 11.601562 18.800781 11.777344 18.800781 12 18.800781 12.222656 18.980469 12.398438 19.199219 12.398438L22 12.398438C22.222656 12.398438 22.398438 12.222656 22.398438 12 22.398438 11.777344 22.222656 11.601562 22 11.601562zM22 11.601562"/>
</svg>

<svg xmlns="http://www.w3.org/2000/svg" width="32" height="32" viewBox="0 0 24 24">
    <path d="M23.602 10V6.398h-3.204V10h-2.714l-.118-.8h2.036V0H4.398v9.2h1.973l-.121.8H0v4h.398v10h2v-8.398C2.398 14.719 3.118 14 4 14h1.645l-.02.11c-.086.468.04.949.344 1.312.304.367.754.578 1.23.578h3.602v1.2h.8v.8h-.8v.48l-4.89 1.13c-.013.003-.02.011-.032.015-.027.008-.05.02-.074.031-.024.012-.043.028-.063.043-.02.016-.035.035-.05.055-.016.02-.032.039-.044.062a.522.522 0 0 0-.043.149c0 .012-.003.023-.003.035v.422A1.794 1.794 0 0 0 4 22.199C4 23.191 4.809 24 5.8 24c.993 0 1.802-.809 1.802-1.8 0-.782-.504-1.442-1.204-1.688v-.196l4.403-1.011v.129l-.969.968c-.012 0-.02-.004-.031-.004-.992 0-1.801.809-1.801 1.801C8 23.191 8.809 24 9.8 24c.993 0 1.802-.809 1.802-1.8 0-.66-.364-1.231-.891-1.544l.656-.656h1.266l.656.656c-.527.313-.89.883-.89 1.543 0 .992.808 1.801 1.8 1.801S16 23.191 16 22.2c0-.993-.809-1.802-1.8-1.802-.012 0-.02.004-.032.004l-.969-.968v-.13l4.403 1.012v.196c-.7.246-1.204.906-1.204 1.687 0 .992.809 1.801 1.801 1.801.992 0 1.801-.809 1.801-1.8 0-.923-.703-1.68-1.602-1.778V20c0-.012-.003-.023-.003-.035a.553.553 0 0 0-.043-.149c-.012-.023-.028-.043-.043-.062-.016-.02-.032-.04-.051-.055-.02-.015-.04-.027-.063-.043a.423.423 0 0 0-.074-.031c-.012-.004-.02-.012-.031-.016L13.2 18.48V18h-.802v-.8h.801V16h3.52a1.603 1.603 0 0 0 1.574-1.875l-.02-.125H20c.883 0 1.602.719 1.602 1.602V24h2V14H24v-4zM6.8 22.2c0 .55-.45 1-1 1-.551 0-1-.45-1-1 0-.552.449-1 1-1 .55 0 1 .448 1 1zm3 1c-.551 0-1-.45-1-1 0-.552.449-1 1-1 .55 0 1 .448 1 1 0 .55-.45 1-1 1zm5.398-1c0 .55-.449 1-1 1-.55 0-1-.45-1-1 0-.552.45-1 1-1 .551 0 1 .448 1 1zm4 0c0 .55-.449 1-1 1-.55 0-1-.45-1-1 0-.552.45-1 1-1 .551 0 1 .448 1 1zm-7.597-3.4h.796v.4h-.796zM22.398 7.2h.403V10h-.403zm-1.199 0h.403V10h-.403zm-2.398 1.198h-1.352L17.273 7.2h1.528zM5.199.801h13.602v5.597h-1.649l-.394-2.691a1.32 1.32 0 0 0-.07-.242c-.008-.027-.02-.05-.028-.074-.023-.055-.05-.11-.078-.164-.012-.02-.023-.043-.039-.063-.043-.07-.09-.14-.145-.203 0-.004-.003-.004-.003-.008a1.864 1.864 0 0 0-.223-.207 1.638 1.638 0 0 0-.086-.058c-.059-.04-.117-.079-.184-.11a.556.556 0 0 0-.097-.047 1.669 1.669 0 0 0-.211-.07c-.031-.008-.059-.02-.09-.027a1.748 1.748 0 0 0-.32-.036H8.777c-.109 0-.214.016-.316.036-.031.007-.063.02-.098.027-.066.02-.136.039-.203.066l-.105.051a2.395 2.395 0 0 0-.27.172 1.551 1.551 0 0 0-.164.156c-.02.02-.043.035-.059.055-.058.066-.105.14-.152.219-.008.007-.012.02-.015.027-.04.066-.07.137-.098.207-.008.016-.016.031-.02.05a1.79 1.79 0 0 0-.074.259l-.406 2.675H5.199zm0 6.398h1.477l-.184 1.2H5.2zM4 13.2a2.402 2.402 0 0 0-2.398 2.403v7.597h-.403v-10H.801v-2.398h5.328l-.363 2.398zm8.398 3.2h-.796V16h.796zm5.106-2.141a.802.802 0 0 1-.172.656.803.803 0 0 1-.613.285h-9.52a.803.803 0 0 1-.613-.285.821.821 0 0 1-.172-.672l.238-1.562L7.06 10l.12-.8h.005l.382-2.54.426-2.808c.012-.059.035-.118.059-.176.008-.016.011-.028.02-.043a.884.884 0 0 1 .105-.16c.035-.035.07-.07.11-.102.01-.008.027-.02.042-.027.031-.02.059-.04.09-.055l.05-.023a.63.63 0 0 1 .153-.047.713.713 0 0 1 .156-.02h6.407c.054 0 .109.008.16.02.015 0 .031.008.047.011.035.008.07.02.105.036.016.007.031.011.043.02.04.019.074.038.11.066a.832.832 0 0 1 .145.129.733.733 0 0 1 .112.18c.031.058.051.12.063.179l.375 2.558.414 2.801.117.801.59 4zm5.695-1.059h-.398v10h-.403v-7.597A2.402 2.402 0 0 0 20 13.199h-1.844l-.09-.597-.265-1.801h5.398zm0 0"/>
    <path d="M4.8 11.602H2a.395.395 0 0 0-.398.398c0 .223.175.398.398.398h2.8a.398.398 0 1 0 0-.796zm0 0M22 11.602h-2.8a.398.398 0 1 0 0 .796H22a.395.395 0 0 0 .398-.398.395.395 0 0 0-.398-.398zm0 0"/>
</svg>
